dist/img/svg/instagram.svg

<svg width="15" height="16" viewBox="0 0 15 16" fill="none" xmlns="http://www.w3.org/2000/svg">
<path d="M13.5942 0.9375H1.40674C1.01611 0.9375 0.684082 1.07422 0.410645 1.34766C0.137207 1.62109 0.000488281 1.95313 0.000488281 2.34375V14.5312C0.000488281 14.9219 0.137207 15.2539 0.410645 15.5273C0.684082 15.8008 1.01611 15.9375 1.40674 15.9375H13.5942C13.9849 15.9375 14.3169 15.8008 14.5903 15.5273C14.8638 15.2539 15.0005 14.9219 15.0005 14.5312V2.34375C15.0005 1.95313 14.8638 1.62109 14.5903 1.34766C14.3169 1.07422 13.9849 0.9375 13.5942 0.9375ZM10.313 3.28125C10.313 3.1543 10.3569 3.04688 10.4448 2.95898C10.5425 2.86133 10.6548 2.8125 10.7817 2.8125H12.6567C12.7837 2.8125 12.8911 2.86133 12.979 2.95898C13.0767 3.04688 13.1255 3.1543 13.1255 3.28125V5.15625C13.1255 5.2832 13.0767 5.39551 12.979 5.49316C12.8911 5.58105 12.7837 5.625 12.6567 5.625H10.7817C10.6548 5.625 10.5425 5.58105 10.4448 5.49316C10.3569 5.39551 10.313 5.2832 10.313 5.15625V3.28125ZM7.50049 5.625C8.27197 5.625 8.93115 5.89844 9.47803 6.44531C10.0347 6.99219 10.313 7.65625 10.313 8.4375C10.313 9.20898 10.0396 9.87305 9.49268 10.4297C8.9458 10.9766 8.28174 11.25 7.50049 11.25C6.729 11.25 6.06494 10.9766 5.5083 10.4297C4.96143 9.88281 4.68799 9.21875 4.68799 8.4375C4.68799 7.66602 4.96143 7.00684 5.5083 6.45996C6.05518 5.90332 6.71924 5.625 7.50049 5.625ZM13.1255 13.5938C13.1255 13.7207 13.0767 13.833 12.979 13.9307C12.8911 14.0186 12.7837 14.0625 12.6567 14.0625H2.34424C2.21729 14.0625 2.10498 14.0186 2.00732 13.9307C1.91943 13.833 1.87549 13.7207 1.87549 13.5938V7.5H2.90088C2.87158 7.64648 2.84717 7.79785 2.82764 7.9541C2.81787 8.11035 2.81299 8.27148 2.81299 8.4375C2.81299 9.08203 2.93506 9.69238 3.1792 10.2686C3.42334 10.835 3.75537 11.333 4.17529 11.7627C4.60498 12.1826 5.10303 12.5146 5.66943 12.7588C6.24561 13.0029 6.85596 13.125 7.50049 13.125C8.14502 13.125 8.75049 13.0029 9.31689 12.7588C9.89307 12.5146 10.3911 12.1826 10.811 11.7627C11.2407 11.333 11.5776 10.835 11.8218 10.2686C12.0659 9.69238 12.188 9.08203 12.188 8.4375C12.188 8.28125 12.1782 8.125 12.1587 7.96875C12.1489 7.80273 12.1294 7.64648 12.1001 7.5H13.1255V13.5938Z"/>
</svg>

<svg width="15" height="16" fill="none" xmlns="http://www.w3.org/2000/svg"><path d="M13.594.938H1.407c-.39 0-.723.136-.996.41-.274.273-.41.605-.41.996V14.53c0 .39.136.723.41.996.273.274.605.41.996.41h12.187c.39 0 .723-.136.996-.41.274-.273.41-.605.41-.996V2.344c0-.39-.136-.723-.41-.996a1.356 1.356 0 00-.996-.41zM10.313 3.28c0-.127.044-.234.132-.322a.463.463 0 01.337-.147h1.875a.42.42 0 01.322.147.417.417 0 01.147.322v1.875c0 .127-.05.24-.147.337a.438.438 0 01-.322.132h-1.875a.489.489 0 01-.337-.132.489.489 0 01-.132-.337V3.281zM7.5 5.625c.772 0 1.431.273 1.978.82.557.547.835 1.211.835 1.992 0 .772-.273 1.436-.82 1.993a2.712 2.712 0 01-1.993.82 2.744 2.744 0 01-1.992-.82 2.712 2.712 0 01-.82-1.992c0-.772.273-1.431.82-1.978A2.688 2.688 0 017.5 5.625zm5.626 7.969c0 .127-.05.239-.147.337a.438.438 0 01-.322.132H2.344a.489.489 0 01-.337-.132.489.489 0 01-.132-.337V7.5h1.026c-.03.146-.054.298-.073.454-.01.156-.015.317-.015.484 0 .644.122 1.254.366 1.83.244.567.576 1.065.996 1.495.43.42.928.752 1.494.996a4.645 4.645 0 001.831.366 4.54 4.54 0 001.817-.366 4.658 4.658 0 002.842-4.79A3.418 3.418 0 0012.1 7.5h1.026v6.094z"/></svg>
